X:1
T:Fine Knacks for Ladies
M:2/2
L:1/4
K:F
 c2 c c| f2 c2| c2 d c-| c =B c2| z c d d| c3 A| B F G G| F4| f2 e d|\
 c3 c| B A B c| d4| A c2 G| B2 A2| G F F E| F4| z2 c2| d2 f2| e2 d2|\
 c4| z c f d| c4| A c2 =B| c4| z A c2-| c2 G2| F4|
